X: 3
T: A Catch, for three Voices:
T: When liberty is put to sale
Z: 2014 John Chambers <jc:trillian.mit.edu>
S: The Gentleman's Magazine v.24, April 1754, p.182
M: C|
L: 1/8
K: Dm
% - - - - - - - - - - - - - - - - - - - - - - - - - - - - -
"1"[| f2 fe g2 f2 | e2d2 ^c2 A2 | a2 gf e2 d2 | d2^c2 d4 |]
w: Curst be the wretch that's bought and sold, And bar-ters* li-ber-ty for gold,
"2"[| d2 dc B2A2 | GA BG A2 A2 | FG A=B c2 f2 | f2 e2 f4 |]
w: For when e-lec-tion is* not* free, In vain* we* boast of li-ber-ty.,
"3"[| a2 aa d2 ef | g2 f2 e2 A2 | de fg a2 b2 | a2 A2 d4 |]
w: And he who sells his* sing-le right, Would sell* his* count-rey's if he might.
% - - - - - - - - - - - - - - - - - - - - - - - - - - - - -
W: When liberty is put to sale   For wine, for money, or for ale;
W: The seller's must be abject slaves,   The buyers vile designing knaves,
W: And it has a proverb been of old,   The devil's bought but to be sold.
W:
W: This maxim in the statesman's school   Is always taught, divide and rule,
W: All parties are to him a joke,   While zealots foam he fits the yoke;
W: When men their reason once resume,   'Tis then the statesman's turn to fume.
W:
W: Learn, learn, ye Briton's to unite,   Leave off the old exploded bite;
W: Henceforth let Whig and Tory cease,   And turn all party-rage to peace;
W: Then shall we see a glorious thing,   And so, God bless great George our King.

%%sep 1 1 500
%%sep 1 1 500
